src/search-white.svg

<svg xmlns="http://www.w3.org/2000/svg" x="0px" y="0px" width="50" height="50" viewBox="0 0 50 50">
<path d="M 21 3 C 11.621094 3 4 10.621094 4 20 C 4 29.378906 11.621094 37 21 37 C 24.710938 37 28.140625 35.804688 30.9375 33.78125 L 44.09375 46.90625 L 46.90625 44.09375 L 33.90625 31.0625 C 36.460938 28.085938 38 24.222656 38 20 C 38 10.621094 30.378906 3 21 3 Z M 21 5 C 29.296875 5 36 11.703125 36 20 C 36 28.296875 29.296875 35 21 35 C 12.703125 35 6 28.296875 6 20 C 6 11.703125 12.703125 5 21 5 Z"></path>
</svg>

<svg xmlns="http://www.w3.org/2000/svg" xmlns:xlink="http://www.w3.org/1999/xlink" viewBox="0,0,256,256" width="50px" height="50px" fill-rule="nonzero">
<g fill="#ffffff" fill-rule="nonzero" stroke="none" stroke-width="1" stroke-linecap="butt" stroke-linejoin="miter" stroke-miterlimit="10" stroke-dasharray="" stroke-dashoffset="0" font-family="none" font-weight="none" font-size="none" text-anchor="none" style="mix-blend-mode: normal">
<g transform="scale(5.12,5.12)">
<path d="M21,3c-9.37891,0 -17,7.62109 -17,17c0,9.37891 7.62109,17 17,17c3.71094,0 7.14063,-1.19531 9.9375,-3.21875l13.15625,13.125l2.8125,-2.8125l-13,-13.03125c2.55469,-2.97656 4.09375,-6.83984 4.09375,-11.0625c0,-9.37891 -7.62109,-17 -17,-17zM21,5c8.29688,0 15,6.70313 15,15c0,8.29688 -6.70312,15 -15,15c-8.29687,0 -15,-6.70312 -15,-15c0,-8.29687 6.70313,-15 15,-15z">
</path>
</g>
</g>
</svg>
